static/images/social-icons.svg

<?xml version="1.0" encoding="UTF-8" standalone="no"?>
<!DOCTYPE svg PUBLIC "-//W3C//DTD SVG 1.1//EN" "http://www.w3.org/Graphics/SVG/1.1/DTD/svg11.dtd">
<svg width="100%" height="100%" viewBox="0 0 1024 1024" version="1.1" xmlns="http://www.w3.org/2000/svg" xmlns:xlink="http://www.w3.org/1999/xlink" xml:space="preserve" xmlns:serif="http://www.serif.com/" style="fill-rule:evenodd;clip-rule:evenodd;stroke-linejoin:round;stroke-miterlimit:2;">
    <g transform="matrix(1.5,0,0,1.5,0,0)">
        <g id="github">
            <path d="M8,0C3.58,0 0,3.58 0,8C0,11.54 2.29,14.53 5.47,15.59C5.87,15.66 6.02,15.42 6.02,15.21C6.02,15.02 6.01,14.39 6.01,13.72C4,14.09 3.48,13.23 3.32,12.78C3.23,12.55 2.84,11.84 2.5,11.65C2.22,11.5 1.82,11.13 2.49,11.12C3.12,11.11 3.57,11.7 3.72,11.94C4.44,13.15 5.59,12.81 6.05,12.6C6.12,12.08 6.33,11.73 6.56,11.53C4.78,11.33 2.92,10.64 2.92,7.58C2.92,6.71 3.23,5.99 3.74,5.43C3.66,5.23 3.38,4.41 3.82,3.31C3.82,3.31 4.49,3.1 6.02,4.13C6.66,3.95 7.34,3.86 8.02,3.86C8.7,3.86 9.38,3.95 10.02,4.13C11.55,3.09 12.22,3.31 12.22,3.31C12.66,4.41 12.38,5.23 12.3,5.43C12.81,5.99 13.12,6.7 13.12,7.58C13.12,10.65 11.25,11.33 9.47,11.53C9.76,11.78 10.01,12.26 10.01,13.01C10.01,14.08 10,14.94 10,15.21C10,15.42 10.15,15.67 10.55,15.59L10.54,15.59C13.79,14.49 15.98,11.43 15.99,8C15.99,3.58 12.41,0 7.99,0L8,0Z"/>
        </g>
    </g>
    <g transform="matrix(1.14285,0.000394542,-0.000394542,1.14285,-71.9995,-0.0248561)">
        <g id="linkedin">
            <g>
                <g>
                    <g>
                        <path d="M82.479,0L64.583,0C63.723,0 62.993,0.67 62.993,1.511L62.993,19.481C62.993,20.311 63.463,20.991 64.323,20.991L82.219,20.991C83.069,20.991 83.989,20.311 83.989,19.471L83.989,1.49C83.989,0.65 83.319,-0.03 82.459,-0.03" style="fill:none;"/>
                        <path d="M82.479,0L64.583,0C63.723,0 62.993,0.67 62.993,1.511L62.993,19.481C62.993,20.311 63.463,20.991 64.323,20.991L82.219,20.991C83.069,20.991 83.989,20.311 83.989,19.471L83.989,1.49C83.989,0.65 83.319,-0.03 82.459,-0.03L82.479,0ZM71,8L73.82,8L73.82,9.44L73.85,9.44C74.28,8.66 75.55,7.87 77.12,7.87C80.14,7.87 80.98,9.47 80.98,12.44L80.98,17.99L77.98,17.99L77.98,12.98C77.98,11.65 77.44,10.483 76.2,10.483C74.69,10.483 73.97,11.503 73.97,13.173L73.97,17.973L70.97,17.973L70.97,7.973L71,8ZM66,18L69,18L69,8L66,8L66,18ZM69.37,4.5C69.37,5.52 68.52,6.37 67.49,6.37C66.46,6.37 65.61,5.52 65.61,4.49C65.61,3.46 66.45,2.61 67.48,2.61C68.5,2.61 69.35,3.45 69.35,4.484L69.37,4.5Z"/>
                    </g>
                </g>
            </g>
        </g>
    </g>
    <g transform="matrix(0.04928,0,0,0.04928,-3.06029,-0.676122)">
        <g id="microblog">
            <g>
                <path d="M495.79,372.06C527.79,334.42 546.9,287.06 546.9,235.56C546.9,113 438.82,13.72 305.5,13.72C172.18,13.72 64.1,113 64.1,235.56C64.1,358.12 172.18,457.4 305.5,457.4C334.85,457.44 363.99,452.51 391.7,442.82C394.91,441.71 398.5,442.84 400.51,445.59C420.68,472.82 452.18,491.97 487.21,499.76C487.53,499.82 487.85,499.86 488.18,499.86C490.8,499.86 492.97,497.69 492.97,495.07C492.97,493.99 492.6,492.95 491.94,492.11C464.42,456.42 466.1,405.77 495.94,372L495.78,372.06L495.79,372.06ZM420,209.48L357.83,256.67L380.39,331.39C380.59,332.05 380.69,332.74 380.69,333.43C380.69,337.3 377.5,340.49 373.63,340.49C372.18,340.49 370.78,340.04 369.59,339.22L305.49,294.67L241.4,339.22C240.21,340.04 238.8,340.48 237.36,340.48C233.48,340.48 230.3,337.29 230.3,333.42C230.3,332.72 230.4,332.03 230.6,331.37L253.16,256.65L190.98,209.46C189.22,208.12 188.19,206.04 188.19,203.83C188.19,200.01 191.28,196.85 195.09,196.77L273.09,195.14L298.76,121.43C299.74,118.6 302.43,116.69 305.42,116.69C308.41,116.69 311.09,118.59 312.08,121.42L337.75,195.13L415.75,196.76C419.59,196.79 422.74,199.97 422.74,203.82C422.74,206.02 421.7,208.1 419.95,209.44L420,209.48Z" style="fill-rule:nonzero;"/>
            </g>
        </g>
    </g>
    <g transform="matrix(0.09375,0,0,0.09375,0,0)">
        <g id="orcid">
            <path d="M128,0C198.64,0 256,57.355 256,128C256,198.64 198.64,256 128,256C57.35,256 0,198.64 0,128C0,57.35 57.355,0 128,0ZM108.9,79.1L150.5,79.1C190.1,79.1 207.5,107.4 207.5,132.7C207.5,160.2 186,186.3 150.7,186.3L108.9,186.3L108.9,79.1ZM86.3,186.2L70.9,186.2L70.9,79.1L86.3,79.1L86.3,186.2ZM124.3,172.4L148.8,172.4C183.7,172.4 191.7,145.9 191.7,132.7C191.7,111.2 178,93 148,93L124.3,93L124.3,172.4ZM88.7,56.8C88.7,62.3 84.2,66.9 78.6,66.9C73,66.9 68.5,62.3 68.5,56.8C68.5,51.2 73,46.7 78.6,46.7C84.2,46.7 88.7,51.3 88.7,56.8Z"/>
        </g>
    </g>
    <g transform="matrix(0.5,0,0,0.5,0,0)">
        <g id="default">
            <g>
                <path d="M24,24C28.42,24 32,20.41 32,16C32,11.58 28.42,8 24,8C19.58,8 16,11.58 16,16C16,20.41 19.58,24 24,24ZM24,28C18.67,28 8,30.67 8,36L8,40L40,40L40,36C40,30.67 29.33,28 24,28Z" style="fill-rule:nonzero;"/>
                <rect x="0" y="0" width="48" height="48" style="fill:none;fill-rule:nonzero;"/>
            </g>
        </g>
    </g>
    <g transform="matrix(0.0202519,0,0,-0.0202519,1.89873,23.8708)">
        <g id="stackoverflow">
            <g>
                <g>
                    <g>
                        <g>
                            <path d="M840.719,105.18L840.719,420.69L945.879,420.69L945.879,-0.01L-0.01,-0.01L-0.01,420.69L105.16,420.69L105.16,105.17L840.71,105.17" style="fill-rule:nonzero;"/>
                            <path d="M210.445,210.359L736.265,210.359L736.265,315.519L210.43,315.519L210.43,210.349L210.445,210.359ZM681.711,1178.69L597.321,1115.93L911.138,694.009L995.518,756.769L681.698,1178.68L681.711,1178.69ZM420.879,929.93L824.91,593.43L892.21,674.24L488.16,1010.74L420.85,929.92L420.879,929.93ZM288.969,696.08L765.633,474.08L810.023,569.41L333.35,791.4L288.95,696.068L288.969,696.08ZM220.879,449.68L735.459,341.53L757.079,444.44L242.489,552.58L220.859,449.66" style="fill-rule:nonzero;"/>
                        </g>
                    </g>
                </g>
            </g>
        </g>
    </g>
    <g transform="matrix(0.07999,0,0,0.07999,-43.1289,-43.2704)">
        <g id="twitter">
            <g>
                <path d="M633.89,812.04C746.35,812.04 807.84,718.87 807.84,638.08C807.84,635.43 807.78,632.79 807.66,630.17C819.59,621.53 829.97,610.77 838.15,598.51C827.19,603.37 815.4,606.65 803.03,608.13C815.65,600.56 825.34,588.58 829.91,574.31C818.09,581.31 805.01,586.4 791.08,589.15C779.92,577.26 764.03,569.83 746.45,569.83C712.68,569.83 685.3,597.21 685.3,630.96C685.3,635.75 685.83,640.42 686.88,644.9C636.06,642.34 591,618.01 560.85,581.02C555.59,590.05 552.57,600.55 552.57,611.75C552.57,632.96 563.36,651.68 579.77,662.64C569.73,662.33 560.31,659.57 552.07,654.99C552.06,655.24 552.06,655.49 552.06,655.77C552.06,685.37 573.13,710.1 601.11,715.7C595.97,717.1 590.56,717.85 584.98,717.85C581.04,717.85 577.21,717.46 573.48,716.74C581.26,741.03 603.83,758.71 630.59,759.2C609.66,775.6 583.3,785.37 554.65,785.37C549.72,785.37 544.85,785.08 540.06,784.52C567.11,801.86 599.24,811.98 633.78,811.98" style="fill-rule:nonzero;"/>
            </g>
        </g>
    </g>
    <g transform="matrix(0.04439,0,0,0.04439,0,0)">
        <g id="xing">
            <g>
                <g>
                    <path d="M129.989,378.772C138.259,378.772 145.349,373.762 151.229,363.732C205.039,268.309 233.029,218.639 235.219,214.702L181.619,121.244C175.949,111.434 168.759,106.534 160.049,106.534L81.93,106.534C76.91,106.534 73.43,108.164 71.47,111.434C69.07,114.694 69.18,118.734 71.79,123.514L124.403,214.684C124.613,214.914 124.613,215.014 124.403,215.014L41.73,361.424C39.55,365.564 39.55,369.484 41.73,373.174C43.9,376.884 47.28,378.734 51.85,378.734L129.96,378.734L129.989,378.772Z" style="fill-rule:nonzero;"/>
                    <path d="M488.49,0L409.73,0C401.23,0 394.25,4.902 388.81,14.7C277.041,212.963 219.194,315.58 215.27,322.548L326.05,525.828C331.27,535.628 338.46,540.528 347.61,540.528L425.71,540.528C430.5,540.528 433.99,538.888 436.16,535.618C438.33,531.898 438.22,527.868 435.83,523.518L326.03,322.528L326.03,322.208L498.58,16.96C500.97,12.38 500.97,8.36 498.58,4.87C496.61,1.59 493.23,-0.04 488.44,-0.04L488.49,0Z" style="fill-rule:nonzero;"/>
                </g>
            </g>
        </g>
    </g>
    <g transform="matrix(1.5,0,0,1.5,0,0)">
        <g id="github1" serif:id="github">
            <path d="M8,0C3.58,0 0,3.58 0,8C0,11.54 2.29,14.53 5.47,15.59C5.87,15.66 6.02,15.42 6.02,15.21C6.02,15.02 6.01,14.39 6.01,13.72C4,14.09 3.48,13.23 3.32,12.78C3.23,12.55 2.84,11.84 2.5,11.65C2.22,11.5 1.82,11.13 2.49,11.12C3.12,11.11 3.57,11.7 3.72,11.94C4.44,13.15 5.59,12.81 6.05,12.6C6.12,12.08 6.33,11.73 6.56,11.53C4.78,11.33 2.92,10.64 2.92,7.58C2.92,6.71 3.23,5.99 3.74,5.43C3.66,5.23 3.38,4.41 3.82,3.31C3.82,3.31 4.49,3.1 6.02,4.13C6.66,3.95 7.34,3.86 8.02,3.86C8.7,3.86 9.38,3.95 10.02,4.13C11.55,3.09 12.22,3.31 12.22,3.31C12.66,4.41 12.38,5.23 12.3,5.43C12.81,5.99 13.12,6.7 13.12,7.58C13.12,10.65 11.25,11.33 9.47,11.53C9.76,11.78 10.01,12.26 10.01,13.01C10.01,14.08 10,14.94 10,15.21C10,15.42 10.15,15.67 10.55,15.59L10.54,15.59C13.79,14.49 15.98,11.43 15.99,8C15.99,3.58 12.41,0 7.99,0L8,0Z"/>
        </g>
    </g>
    <g transform="matrix(1.14285,0.000394542,-0.000394542,1.14285,-71.9995,23.9751)">
        <g id="linkedin1" serif:id="linkedin">
            <g>
                <g>
                    <g>
                        <path d="M82.479,0L64.583,0C63.723,0 62.993,0.67 62.993,1.511L62.993,19.481C62.993,20.311 63.463,20.991 64.323,20.991L82.219,20.991C83.069,20.991 83.989,20.311 83.989,19.471L83.989,1.49C83.989,0.65 83.319,-0.03 82.459,-0.03" style="fill:none;"/>
                        <path d="M82.479,0L64.583,0C63.723,0 62.993,0.67 62.993,1.511L62.993,19.481C62.993,20.311 63.463,20.991 64.323,20.991L82.219,20.991C83.069,20.991 83.989,20.311 83.989,19.471L83.989,1.49C83.989,0.65 83.319,-0.03 82.459,-0.03L82.479,0ZM71,8L73.82,8L73.82,9.44L73.85,9.44C74.28,8.66 75.55,7.87 77.12,7.87C80.14,7.87 80.98,9.47 80.98,12.44L80.98,17.99L77.98,17.99L77.98,12.98C77.98,11.65 77.44,10.483 76.2,10.483C74.69,10.483 73.97,11.503 73.97,13.173L73.97,17.973L70.97,17.973L70.97,7.973L71,8ZM66,18L69,18L69,8L66,8L66,18ZM69.37,4.5C69.37,5.52 68.52,6.37 67.49,6.37C66.46,6.37 65.61,5.52 65.61,4.49C65.61,3.46 66.45,2.61 67.48,2.61C68.5,2.61 69.35,3.45 69.35,4.484L69.37,4.5Z"/>
                    </g>
                </g>
            </g>
        </g>
    </g>
    <g transform="matrix(0.04928,0,0,0.04928,-3.06029,47.3239)">
        <g id="microblog1" serif:id="microblog">
            <g>
                <path d="M495.79,372.06C527.79,334.42 546.9,287.06 546.9,235.56C546.9,113 438.82,13.72 305.5,13.72C172.18,13.72 64.1,113 64.1,235.56C64.1,358.12 172.18,457.4 305.5,457.4C334.85,457.44 363.99,452.51 391.7,442.82C394.91,441.71 398.5,442.84 400.51,445.59C420.68,472.82 452.18,491.97 487.21,499.76C487.53,499.82 487.85,499.86 488.18,499.86C490.8,499.86 492.97,497.69 492.97,495.07C492.97,493.99 492.6,492.95 491.94,492.11C464.42,456.42 466.1,405.77 495.94,372L495.78,372.06L495.79,372.06ZM420,209.48L357.83,256.67L380.39,331.39C380.59,332.05 380.69,332.74 380.69,333.43C380.69,337.3 377.5,340.49 373.63,340.49C372.18,340.49 370.78,340.04 369.59,339.22L305.49,294.67L241.4,339.22C240.21,340.04 238.8,340.48 237.36,340.48C233.48,340.48 230.3,337.29 230.3,333.42C230.3,332.72 230.4,332.03 230.6,331.37L253.16,256.65L190.98,209.46C189.22,208.12 188.19,206.04 188.19,203.83C188.19,200.01 191.28,196.85 195.09,196.77L273.09,195.14L298.76,121.43C299.74,118.6 302.43,116.69 305.42,116.69C308.41,116.69 311.09,118.59 312.08,121.42L337.75,195.13L415.75,196.76C419.59,196.79 422.74,199.97 422.74,203.82C422.74,206.02 421.7,208.1 419.95,209.44L420,209.48Z" style="fill-rule:nonzero;"/>
            </g>
        </g>
    </g>
    <g transform="matrix(0.09375,0,0,0.09375,0,72)">
        <g id="orcid1" serif:id="orcid">
            <path d="M128,0C198.64,0 256,57.355 256,128C256,198.64 198.64,256 128,256C57.35,256 0,198.64 0,128C0,57.35 57.355,0 128,0ZM108.9,79.1L150.5,79.1C190.1,79.1 207.5,107.4 207.5,132.7C207.5,160.2 186,186.3 150.7,186.3L108.9,186.3L108.9,79.1ZM86.3,186.2L70.9,186.2L70.9,79.1L86.3,79.1L86.3,186.2ZM124.3,172.4L148.8,172.4C183.7,172.4 191.7,145.9 191.7,132.7C191.7,111.2 178,93 148,93L124.3,93L124.3,172.4ZM88.7,56.8C88.7,62.3 84.2,66.9 78.6,66.9C73,66.9 68.5,62.3 68.5,56.8C68.5,51.2 73,46.7 78.6,46.7C84.2,46.7 88.7,51.3 88.7,56.8Z"/>
        </g>
    </g>
    <g transform="matrix(0.5,0,0,0.5,0,96)">
        <g id="default1" serif:id="default">
            <g>
                <path d="M24,24C28.42,24 32,20.41 32,16C32,11.58 28.42,8 24,8C19.58,8 16,11.58 16,16C16,20.41 19.58,24 24,24ZM24,28C18.67,28 8,30.67 8,36L8,40L40,40L40,36C40,30.67 29.33,28 24,28Z" style="fill-rule:nonzero;"/>
                <rect x="0" y="0" width="48" height="48" style="fill:none;fill-rule:nonzero;"/>
            </g>
        </g>
    </g>
    <g transform="matrix(0.0202519,0,0,-0.0202519,1.89873,143.871)">
        <g id="stackoverflow1" serif:id="stackoverflow">
            <g>
                <g>
                    <g>
                        <g>
                            <path d="M840.719,105.18L840.719,420.69L945.879,420.69L945.879,-0.01L-0.01,-0.01L-0.01,420.69L105.16,420.69L105.16,105.17L840.71,105.17" style="fill-rule:nonzero;"/>
                            <path d="M210.445,210.359L736.265,210.359L736.265,315.519L210.43,315.519L210.43,210.349L210.445,210.359ZM681.711,1178.69L597.321,1115.93L911.138,694.009L995.518,756.769L681.698,1178.68L681.711,1178.69ZM420.879,929.93L824.91,593.43L892.21,674.24L488.16,1010.74L420.85,929.92L420.879,929.93ZM288.969,696.08L765.633,474.08L810.023,569.41L333.35,791.4L288.95,696.068L288.969,696.08ZM220.879,449.68L735.459,341.53L757.079,444.44L242.489,552.58L220.859,449.66" style="fill-rule:nonzero;"/>
                        </g>
                    </g>
                </g>
            </g>
        </g>
    </g>
    <g transform="matrix(0.07999,0,0,0.07999,-43.1289,100.73)">
        <g id="twitter1" serif:id="twitter">
            <g>
                <path d="M633.89,812.04C746.35,812.04 807.84,718.87 807.84,638.08C807.84,635.43 807.78,632.79 807.66,630.17C819.59,621.53 829.97,610.77 838.15,598.51C827.19,603.37 815.4,606.65 803.03,608.13C815.65,600.56 825.34,588.58 829.91,574.31C818.09,581.31 805.01,586.4 791.08,589.15C779.92,577.26 764.03,569.83 746.45,569.83C712.68,569.83 685.3,597.21 685.3,630.96C685.3,635.75 685.83,640.42 686.88,644.9C636.06,642.34 591,618.01 560.85,581.02C555.59,590.05 552.57,600.55 552.57,611.75C552.57,632.96 563.36,651.68 579.77,662.64C569.73,662.33 560.31,659.57 552.07,654.99C552.06,655.24 552.06,655.49 552.06,655.77C552.06,685.37 573.13,710.1 601.11,715.7C595.97,717.1 590.56,717.85 584.98,717.85C581.04,717.85 577.21,717.46 573.48,716.74C581.26,741.03 603.83,758.71 630.59,759.2C609.66,775.6 583.3,785.37 554.65,785.37C549.72,785.37 544.85,785.08 540.06,784.52C567.11,801.86 599.24,811.98 633.78,811.98" style="fill-rule:nonzero;"/>
            </g>
        </g>
    </g>
    <g transform="matrix(0.0282353,0,0,0.0282353,-2.11765,195.031)">
        <g id="pixelfed">
            <g>
                <path d="M500,176C423.333,176 351.667,195.333 285,234C221,272 170.333,323 133,387C94.333,453 75,524.5 75,601.5C75,678.5 94.333,750 133,816C170.333,880 221,930.667 285,968C351.667,1006.67 423.333,1026 500,1026C576.667,1026 648.333,1006.67 715,968C779,930.667 829.667,880 867,816C905.667,750 925,678.5 925,601.5C925,524.5 905.667,453 867,387C829.667,323 779,272 715,234C648.333,195.333 576.667,176 500,176ZM432,435L544,435C568,435 590.167,440.833 610.5,452.5C630.833,464.167 647,479.833 659,499.5C671,519.167 677,540.833 677,564.5C677,588.167 671,609.833 659,629.5C647,649.167 630.833,664.833 610.5,676.5C590.167,688.167 568,694 544,694L466,694L355,800L355,510C355,489.333 362.5,471.667 377.5,457C392.5,442.333 410.667,435 432,435Z" style="fill-rule:nonzero;"/>
            </g>
        </g>
    </g>
    <g transform="matrix(0.04439,0,0,0.04439,0,168)">
        <g id="xing1" serif:id="xing">
            <g>
                <g>
                    <path d="M129.989,378.772C138.259,378.772 145.349,373.762 151.229,363.732C205.039,268.309 233.029,218.639 235.219,214.702L181.619,121.244C175.949,111.434 168.759,106.534 160.049,106.534L81.93,106.534C76.91,106.534 73.43,108.164 71.47,111.434C69.07,114.694 69.18,118.734 71.79,123.514L124.403,214.684C124.613,214.914 124.613,215.014 124.403,215.014L41.73,361.424C39.55,365.564 39.55,369.484 41.73,373.174C43.9,376.884 47.28,378.734 51.85,378.734L129.96,378.734L129.989,378.772Z" style="fill-rule:nonzero;"/>
                    <path d="M488.49,0L409.73,0C401.23,0 394.25,4.902 388.81,14.7C277.041,212.963 219.194,315.58 215.27,322.548L326.05,525.828C331.27,535.628 338.46,540.528 347.61,540.528L425.71,540.528C430.5,540.528 433.99,538.888 436.16,535.618C438.33,531.898 438.22,527.868 435.83,523.518L326.03,322.528L326.03,322.208L498.58,16.96C500.97,12.38 500.97,8.36 498.58,4.87C496.61,1.59 493.23,-0.04 488.44,-0.04L488.49,0Z" style="fill-rule:nonzero;"/>
                </g>
            </g>
        </g>
    </g>
</svg>

<?xml version="1.0" encoding="UTF-8" standalone="no"?>
<!DOCTYPE svg PUBLIC "-//W3C//DTD SVG 1.1//EN" "http://www.w3.org/Graphics/SVG/1.1/DTD/svg11.dtd">
<svg xmlns="http://www.w3.org/2000/svg" xmlns:xlink="http://www.w3.org/1999/xlink">
<symbol id="github" viewBox="0 0 24 24"><path fill-rule="evenodd" d="M8 0C3.58 0 0 3.58 0 8c0 3.54 2.29 6.53 5.47 7.59 .4.07.55-.17.55-.38 0-.19-.01-.82-.01-1.49 -2.01.37-2.53-.49-2.69-.94 -.09-.23-.48-.94-.82-1.13 -.28-.15-.68-.52-.01-.53 .63-.01 1.08.58 1.23.82 .72 1.21 1.87.87 2.33.66 .07-.52.28-.87.51-1.07 -1.78-.2-3.64-.89-3.64-3.95 0-.87.31-1.59.82-2.15 -.08-.2-.36-1.02.08-2.12 0 0 .67-.21 2.2.82 .64-.18 1.32-.27 2-.27 .68 0 1.36.09 2 .27 1.53-1.04 2.2-.82 2.2-.82 .44 1.1.16 1.92.08 2.12 .51.56.82 1.27.82 2.15 0 3.07-1.87 3.75-3.65 3.95 .29.25.54.73.54 1.48 0 1.07-.01 1.93-.01 2.2 0 .21.15.46.55.38l-.01 0c3.25-1.1 5.44-4.16 5.45-7.59 0-4.42-3.58-8-8-8Z" transform="scale(1.5)"/></symbol>
<symbol id="linkedin" viewBox="0 0 24 24"><g transform="scale(1.14285) rotate(.01978)"><g transform="translate(-63 0)"><g fill="none" fill-rule="evenodd"><path d="M82.479 0H64.583c-.86 0-1.59.67-1.59 1.511v17.97c0 .83.47 1.51 1.33 1.51h17.896c.85 0 1.77-.68 1.77-1.52V1.49c0-.84-.67-1.52-1.53-1.52"/><path fill="#000" d="M82.479 0H64.583c-.86 0-1.59.67-1.59 1.511v17.97c0 .83.47 1.51 1.33 1.51h17.896c.85 0 1.77-.68 1.77-1.52V1.49c0-.84-.67-1.52-1.53-1.52ZM71 8h2.82v1.44h.03c.43-.78 1.7-1.57 3.27-1.57 3.02 0 3.86 1.6 3.86 4.57v5.55h-3V12.98c0-1.33-.54-2.497-1.78-2.497 -1.51 0-2.23 1.02-2.23 2.69v4.8h-3v-10Zm-5 10h3V8h-3v10Zm3.37-13.5s0 0 0 0c0 1.02-.85 1.87-1.88 1.87 -1.03 0-1.88-.85-1.88-1.88 0 0 0 0 0 0 0-1.03.84-1.88 1.87-1.88 1.02 0 1.87.84 1.87 1.874Z"/></g></g></g></symbol>
<symbol id="microblog" viewBox="0 0 24 24"><g transform="translate(.09856 0) scale(.04928)"><path d="M495.79 372.06c32-37.64 51.11-85 51.11-136.5C546.9 113 438.82 13.72 305.5 13.72 172.18 13.72 64.1 113 64.1 235.56c0 122.56 108.08 221.84 241.4 221.84 29.35.04 58.49-4.89 86.2-14.58 3.21-1.11 6.8.02 8.81 2.77 20.17 27.23 51.67 46.38 86.7 54.17 .32.06.64.1.97.1 2.62 0 4.79-2.17 4.79-4.79 0-1.08-.37-2.12-1.03-2.96 -27.52-35.69-25.84-86.34 4-120.11l-.16.06ZM420 209.48l-62.17 47.19 22.56 74.72c.2.66.3 1.35.3 2.04 0 3.87-3.19 7.06-7.06 7.06 -1.45 0-2.85-.45-4.04-1.27l-64.1-44.55 -64.09 44.55c-1.19.82-2.6 1.26-4.04 1.26 -3.88 0-7.06-3.19-7.06-7.06 0-.7.1-1.39.3-2.05l22.56-74.72 -62.18-47.19c-1.76-1.34-2.79-3.42-2.79-5.63 0-3.82 3.09-6.98 6.9-7.06l78-1.63 25.67-73.71c.98-2.83 3.67-4.74 6.66-4.74s5.67 1.9 6.66 4.73l25.67 73.71 78 1.63c3.84.03 6.99 3.21 6.99 7.06 0 2.2-1.04 4.28-2.79 5.62Z" transform="translate(-64.1-13.72)"/></g></symbol>
<symbol id="orcid" viewBox="0 0 24 24"><path fill-rule="evenodd" d="M128 0c70.64 0 128 57.355 128 128 0 70.64-57.36 128-128 128C57.35 256 0 198.64 0 128 0 57.35 57.355 0 128 0Zm-19.1 79.1h41.6c39.6 0 57 28.3 57 53.6 0 27.5-21.5 53.6-56.8 53.6h-41.8V79.1ZM86.3 186.2H70.9V79.1h15.4v107.1Zm38-13.8h24.5c34.9 0 42.9-26.5 42.9-39.7C191.7 111.2 178 93 148 93h-23.7v79.4ZM88.7 56.8c0 5.5-4.5 10.1-10.1 10.1s-10.1-4.6-10.1-10.1c0-5.6 4.5-10.1 10.1-10.1s10.1 4.6 10.1 10.1Z" transform="scale(.09375)"/></symbol>
<symbol id="default" viewBox="0 0 24 24"><g transform="scale(.5)"><path d="M24 24c4.42 0 8-3.59 8-8 0-4.42-3.58-8-8-8s-8 3.58-8 8c0 4.41 3.58 8 8 8Zm0 4c-5.33 0-16 2.67-16 8v4h32v-4c0-5.33-10.67-8-16-8Z"/><path fill="none" d="M0 0h48v48H0Z"/></g></symbol>
<symbol id="stackoverflow" viewBox="0 0 24 24"><g transform="translate(1.89873 0) scale(.15189)"><g transform="translate(0-.00134)"><g transform="matrix(.133333 0 0-.133333 0 157.16)"><g><path d="M840.719 105.18v315.51h105.16V-.01H-.01V420.69H105.16V105.17h735.55"/><path d="M210.445 210.359h525.82v105.16H210.43v-105.17Zm471.266 968.33l-84.39-62.76 313.817-421.92 84.38 62.76 -313.82 421.91ZM420.879 929.93L824.91 593.43l67.3 80.81 -404.05 336.5 -67.31-80.82Zm-131.91-233.85l476.664-222 44.39 95.33L333.35 791.4l-44.4-95.332Zm-68.09-246.4l514.58-108.15 21.62 102.91 -514.59 108.14 -21.63-102.92"/></g></g></g></g></symbol>
<symbol id="twitter" viewBox="0 0 24 24"><g transform="translate(0 2.23252) scale(.07999)"><path d="M633.89 812.04c112.46 0 173.95-93.17 173.95-173.96 0-2.65-.06-5.29-.18-7.91 11.93-8.64 22.31-19.4 30.49-31.66 -10.96 4.86-22.75 8.14-35.12 9.62 12.62-7.57 22.31-19.55 26.88-33.82 -11.82 7-24.9 12.09-38.83 14.84 -11.16-11.89-27.05-19.32-44.63-19.32 -33.77 0-61.15 27.38-61.15 61.13 0 4.79.53 9.46 1.58 13.94 -50.82-2.56-95.88-26.89-126.03-63.88 -5.26 9.03-8.28 19.53-8.28 30.73 0 21.21 10.79 39.93 27.2 50.89 -10.04-.31-19.46-3.07-27.7-7.65 -.01.25-.01.5-.01.78 0 29.6 21.07 54.33 49.05 59.93 -5.14 1.4-10.55 2.15-16.13 2.15 -3.94 0-7.77-.39-11.5-1.11 7.78 24.29 30.35 41.97 57.11 42.46 -20.93 16.4-47.29 26.17-75.94 26.17 -4.93 0-9.8-.29-14.59-.85 27.05 17.34 59.18 27.46 93.72 27.46" transform="translate(-539.179-568.858)"/></g></symbol>
<symbol id="xing" viewBox="0 0 24 24"><g transform="scale(.04439)"><g><path d="M129.989 378.772c8.27 0 15.36-5.01 21.24-15.04 53.81-95.423 81.8-145.093 83.99-149.03l-53.6-93.458c-5.67-9.81-12.86-14.71-21.57-14.71H81.93c-5.02 0-8.5 1.63-10.46 4.9 -2.4 3.26-2.29 7.3.32 12.08l52.613 91.17c.21.23.21.33 0 .33L41.73 361.424c-2.18 4.14-2.18 8.06 0 11.75 2.17 3.71 5.55 5.56 10.12 5.56h78.11Z"/><path d="M488.49 0h-78.76c-8.5 0-15.48 4.902-20.92 14.7 -111.769 198.263-169.616 300.88-173.54 307.848l110.78 203.28c5.22 9.8 12.41 14.7 21.56 14.7h78.1c4.79 0 8.28-1.64 10.45-4.91 2.17-3.72 2.06-7.75-.33-12.1l-109.8-200.99v-.32L498.58 16.96c2.39-4.58 2.39-8.6 0-12.09 -1.97-3.28-5.35-4.91-10.14-4.91Z"/></g></g></symbol>
<use xlink:href="#github" x="0" y="0" width="24" height="24"/>
<use xlink:href="#linkedin" x="0" y="24" width="24" height="24"/>
<use xlink:href="#microblog" x="0" y="48" width="24" height="24"/>
<use xlink:href="#orcid" x="0" y="72" width="24" height="24"/>
<use xlink:href="#default" x="0" y="96" width="24" height="24"/>
<use xlink:href="#stackoverflow" x="0" y="120" width="24" height="24"/>
<use xlink:href="#twitter" x="0" y="144" width="24" height="24"/>
<use xlink:href="#xing" x="0" y="168" width="24" height="24"/>
<view id="social-github" viewBox="0 0 24 24"/>
<view id="social-linkedin" viewBox="0 24 24 24"/>
<view id="social-microblog" viewBox="0 48 24 24"/>
<view id="social-orcid" viewBox="0 72 24 24"/>
<view id="social-default" viewBox="0 96 24 24"/>
<view id="social-stackoverflow" viewBox="0 120 24 24"/>
<view id="social-twitter" viewBox="0 144 24 24"/>
<view id="social-xing" viewBox="0 168 24 24"/>
</svg>
